public/assets/blog-illustration-2.svg

<svg width="400" height="278" viewBox="0 0 400 278" fill="none" xmlns="http://www.w3.org/2000/svg">
<g clip-path="url(#clip0_8046_7010)">
<path d="M400 0.62793H0V277.032H400V0.62793Z" fill="#003834"/>
<path d="M232.326 65.5153L251.315 90.4816C246.135 94.7625 242.011 100.234 239.337 106.392C237.011 111.74 235.843 117.437 235.843 123.324C235.843 130.178 237.494 136.942 240.641 142.976L235.955 145.661C235.955 145.661 235.865 145.706 235.82 145.729L228.888 149.706C228.888 149.706 228.798 149.751 228.742 149.774L221.584 153.875C221.584 153.875 221.483 153.92 221.427 153.954L213.393 158.549C207.551 147.785 204.472 135.639 204.472 123.313C204.472 113.1 206.517 103.212 210.551 93.9086C215.348 82.8412 222.854 73.0547 232.303 65.5153M232.641 63.1333C222.337 70.9872 214.169 81.3917 209.034 93.2344C204.91 102.74 202.82 112.864 202.82 123.302C202.82 136.482 206.27 149.47 212.787 160.841L222.292 155.392L229.596 151.201L236.663 147.145L242.91 143.572C239.382 137.425 237.528 130.403 237.528 123.279C237.528 117.628 238.663 112.156 240.888 107.021C243.663 100.616 248.079 94.9872 253.663 90.74L232.641 63.1108V63.1333Z" fill="#AECC53"/>
<path d="M333.966 174.583L325.651 166.909L318.809 160.583L313.55 155.729L308.46 151.032C300.741 159.392 289.786 164.19 278.415 164.19C263.797 164.19 250.191 156.302 242.921 143.605L236.91 147.055L230.696 150.617L222.606 155.246L212.786 160.875C226.236 184.358 251.393 198.943 278.427 198.943C299.46 198.943 319.707 190.077 333.977 174.617L333.966 174.583Z" fill="#AECC53"/>
<path d="M325.921 167.156L333.966 174.594C346.899 160.594 354.011 142.381 354.011 123.313H343.056H342.696H333.382H326.494H326.225H319.292C319.292 133.628 315.438 143.471 308.449 151.044L313.741 155.931L319.73 161.46L325.91 167.167L325.921 167.156Z" fill="white"/>
<path d="M278.416 49.3919C318.607 49.3919 351.416 81.6391 352.314 121.628H320.955C320.067 98.9313 301.326 80.7515 278.427 80.7515C269.505 80.7515 260.966 83.4818 253.741 88.6279C253.562 88.7515 253.191 89.0436 252.674 89.4481L233.696 64.4706C234.101 64.156 234.483 63.8751 234.607 63.774C247.359 54.3695 262.517 49.3919 278.427 49.3919M278.416 47.7066C262.123 47.7066 246.652 52.7852 233.595 62.4144C233.281 62.6504 231.337 64.1447 231.337 64.1447L252.371 91.8189C252.719 91.5605 254.371 90.2459 254.719 89.9874C261.663 85.0324 269.831 82.4257 278.416 82.4257C300.955 82.4257 319.292 100.763 319.292 123.302H354.011C354.011 81.6167 320.101 47.6953 278.404 47.6953L278.416 47.7066Z" fill="white"/>
<path d="M282.191 57.5832L282.146 34.1001H318.023" stroke="white" stroke-width="0.41573" stroke-miterlimit="10"/>
<path d="M317.944 35.6842C318.809 35.6842 319.517 34.9763 319.517 34.1111C319.517 33.246 318.809 32.5381 317.944 32.5381C317.079 32.5381 316.371 33.246 316.371 34.1111C316.371 34.9763 317.079 35.6842 317.944 35.6842Z" fill="white"/>
<path d="M224.45 89.605H173.63" stroke="white" stroke-width="0.41573" stroke-miterlimit="10"/>
<path d="M173.708 88.0322C172.843 88.0322 172.135 88.7401 172.135 89.6053C172.135 90.4704 172.843 91.1783 173.708 91.1783C174.573 91.1783 175.281 90.4704 175.281 89.6053C175.281 88.7401 174.573 88.0322 173.708 88.0322Z" fill="white"/>
<path d="M175.011 83.0664H205.348" stroke="white" stroke-width="2.24719" stroke-miterlimit="10"/>
<path d="M336.169 160.392H387" stroke="white" stroke-width="0.41573" stroke-miterlimit="10"/>
<path d="M386.922 161.965C387.787 161.965 388.495 161.257 388.495 160.392C388.495 159.527 387.787 158.819 386.922 158.819C386.056 158.819 385.349 159.527 385.349 160.392C385.349 161.257 386.056 161.965 386.922 161.965Z" fill="white"/>
<path d="M385.608 153.853H355.271" stroke="white" stroke-width="2.24719" stroke-miterlimit="10"/>
<path d="M281.753 28.0103H317.708" stroke="white" stroke-width="2.24719" stroke-miterlimit="10"/>
<path d="M281.753 21.2686H317.708" stroke="white" stroke-width="2.24719" stroke-miterlimit="10"/>
<path d="M289.899 195.167L290.326 220.898" stroke="white" stroke-width="0.41573" stroke-miterlimit="10"/>
<path d="M288.753 220.842C288.764 221.707 289.483 222.404 290.36 222.392C291.225 222.381 291.922 221.662 291.91 220.786C291.899 219.92 291.18 219.224 290.304 219.235C289.427 219.246 288.742 219.965 288.753 220.842Z" fill="white"/>
<path d="M295.235 215.65H333.438" stroke="white" stroke-width="2.24719" stroke-miterlimit="10"/>
<path d="M295.235 210.033H333.438" stroke="white" stroke-width="2.24719" stroke-miterlimit="10"/>
<path d="M286.967 141.493L270.922 132.224V113.684L286.967 104.415H287.012L303.068 113.684V132.224L287.012 141.493H286.967Z" stroke="white" stroke-width="1.1236" stroke-miterlimit="10"/>
<path d="M286.933 132.224V113.684L270.877 104.415L254.82 113.684V132.224L270.877 141.493L286.933 132.224Z" fill="#A7C553"/>
<path d="M278.248 123.179C278.282 127.246 275.012 130.572 270.945 130.606C266.877 130.639 263.551 127.37 263.518 123.302C263.484 119.235 270.799 112.313 270.799 112.313C270.799 112.313 278.214 119.111 278.248 123.179Z" fill="white"/>
<path d="M270.865 121.336L270.966 133.594" stroke="black" stroke-width="1.02247" stroke-linecap="round" stroke-linejoin="round"/>
<path d="M78.0673 168.707L121.854 165.291C124.326 165.111 128.449 168.381 128.472 170.864L128.944 207.381L141.416 215.695L117.045 215.527L111.888 187.538L69.292 194.437L78.0673 168.707Z" fill="black"/>
<path d="M92.1461 169.65L77.7528 200.055L55.8989 251.459L69.0787 268.504L44 259.605L47.6629 184.875L92.1461 169.65Z" fill="black"/>
<path d="M92.1461 169.65L77.7528 200.055L55.8989 251.459L69.0787 268.504L44 259.605L47.6629 184.875L92.1461 169.65Z" stroke="#757575" stroke-width="0.865169" stroke-miterlimit="10"/>
<path d="M101.226 171.887C98.8885 158.999 93.5514 130.808 91.3267 122.898C89.0795 114.92 87.248 106.763 80.1581 101.594C71.7312 95.4596 61.0233 95.9764 54.3379 104.403C50.3716 109.403 48.5402 115.797 47.6525 122.123C46.3491 131.482 45.293 184.887 45.293 184.887C45.9784 185.909 46.5402 187.078 47.5177 187.639C79.5065 206.044 102.484 178.909 101.214 171.887H101.226Z" fill="#003834" stroke="#ADCB53" stroke-width="1.1236" stroke-linecap="round" stroke-linejoin="round"/>
<path d="M77.1805 99.1677C86.408 99.1677 93.8884 91.6873 93.8884 82.4598C93.8884 73.2323 86.408 65.752 77.1805 65.752C67.953 65.752 60.4727 73.2323 60.4727 82.4598C60.4727 91.6873 67.953 99.1677 77.1805 99.1677Z" fill="white"/>
<path d="M68.034 91.2572C66.5733 85.3021 68.5846 78.8752 73.3374 74.9875C78.843 70.4931 86.2138 70.3134 91.7868 73.6954C90.6295 70.6392 88.7194 67.7628 85.5508 65.4819C78.9778 60.7516 70.225 60.3583 63.5958 65.01C55.2475 70.8527 53.1126 82.3358 58.843 90.7965C59.9216 92.3808 61.1913 93.7516 62.6183 94.8976C65.1464 96.9201 68.8992 94.5606 68.0902 91.4257C68.0789 91.3695 68.0565 91.3134 68.0452 91.2572H68.034Z" fill="black"/>
<path d="M59.8426 76.3248C65.1172 76.3248 69.3931 72.0488 69.3931 66.7742C69.3931 61.4996 65.1172 57.2236 59.8426 57.2236C54.5679 57.2236 50.292 61.4996 50.292 66.7742C50.292 72.0488 54.5679 76.3248 59.8426 76.3248Z" fill="black"/>
<path d="M91.7751 73.6955C90.6178 70.6394 88.7077 67.763 85.5392 65.4821C80.4718 61.8304 74.1122 60.7854 68.4268 62.6057C66.8763 59.4259 63.6178 57.2236 59.8426 57.2236C54.5729 57.2236 50.292 61.5045 50.292 66.7742C50.292 70.7742 52.7527 74.1899 56.2358 75.6169C54.9324 80.6394 55.6965 86.1675 58.8313 90.7967C59.91 92.3809 61.1796 93.7517 62.6066 94.8978" stroke="#757575" stroke-width="0.561798" stroke-linecap="round" stroke-linejoin="round"/>
<path d="M69.7004 89.5279C71.7079 88.8394 72.5911 86.1114 71.6731 83.4348C70.7551 80.7581 68.3836 79.1464 66.3761 79.8349C64.3686 80.5234 63.4854 83.2514 64.4034 85.928C65.3214 88.6047 67.6929 90.2164 69.7004 89.5279Z" fill="white"/>
<path d="M87.3595 81.886C87 82.6725 87.3483 83.6051 88.1348 83.9647C88.9213 84.3242 89.8539 83.9759 90.2135 83.1894C90.573 82.4029 87.7191 81.0995 87.3595 81.886Z" fill="#3C3C3C"/>
<path d="M92.483 80.5941C90.4718 78.2458 87.1459 77.3132 84.3145 78.5491" stroke="#3C3C3C" stroke-width="1.1236" stroke-linecap="round" stroke-linejoin="round"/>
<path d="M88.6177 94.4589C87.0109 93.796 86.3031 93.2005 85.6289 91.5601" stroke="#606060" stroke-width="0.438202" stroke-linecap="round" stroke-linejoin="round"/>
<path d="M122.393 120.437L144.629 109.01" stroke="#ADCB53" stroke-width="2.83146" stroke-linecap="round" stroke-linejoin="round"/>
<path d="M119.001 124.493C120.428 123.257 122.383 122.752 123.248 121.033C124.012 119.527 124.001 116.808 124.349 115.123C124.529 114.257 124.866 113.235 125.72 113.022C126.529 112.831 127.304 113.538 127.585 114.325C128.394 116.628 128.664 121.954 132.866 120.246C135.237 119.28 134.933 115.336 137.169 113.965C138.237 113.314 141.742 111.572 143.046 112.887C143.821 113.662 140.214 118.179 139.765 119.437C138.99 121.572 138.237 123.718 137.495 125.864C137.124 126.954 136.731 128.078 135.911 128.898C135.169 129.651 134.147 130.055 133.158 130.437C128.461 132.28 122.147 132.909 118.383 136.471" fill="white"/>
<path d="M120.449 138.617C120.449 138.617 120.392 138.673 120.359 138.695L108.741 148.684C102.168 154.347 93.5273 156.527 85.0554 154.684C76.5722 152.842 69.6396 147.257 66.0104 139.37L59.5048 125.235C57.2464 120.325 59.3924 114.516 64.3026 112.257C69.2127 109.999 75.0217 112.145 77.2801 117.055L83.7857 131.19C84.8194 133.437 86.7969 135.033 89.2127 135.561C91.6284 136.089 94.1003 135.459 95.9767 133.853L107.595 123.864C111.685 120.336 117.864 120.808 121.392 124.898C124.887 128.965 124.46 135.077 120.449 138.617Z" fill="#AECC53"/>
<path d="M65.7988 83.4259C65.8101 82.718 65.9224 81.8978 66.5292 81.5383C67.1134 81.1787 67.9112 81.4596 68.3719 81.9765C68.8213 82.4933 69.0123 83.1787 69.1808 83.8416C69.2707 84.1899 67.5516 84.5158 68.4168 85.7517C68.6415 86.0776 68.9674 86.3135 69.282 86.5383C69.1921 86.954 69.091 87.3922 68.8213 87.7293C68.5629 88.0663 68.1022 88.2911 67.6977 88.145" stroke="#606060" stroke-width="0.438202" stroke-linecap="round" stroke-linejoin="round"/>
<path d="M134.562 78.7407C135.158 78.6396 135.641 78.1564 135.697 77.5272C135.776 76.7744 135.225 76.1002 134.472 76.0216C133.719 75.9429 133.045 76.4935 132.967 77.2463C132.922 77.6845 133.09 78.089 133.394 78.3811C132.528 80.471 130.573 81.9542 128.292 82.1789V76.3362C129.854 76.1452 131.248 75.2463 132.079 73.9317C132.731 73.9205 133.304 73.4373 133.405 72.7632C133.517 72.0103 133 71.3137 132.259 71.2014C131.517 71.089 130.809 71.6059 130.697 72.3474C130.641 72.7407 130.753 73.1115 130.978 73.4036C130.36 74.3137 129.394 74.9429 128.304 75.1115V69.4036C128.753 69.1789 129.068 68.7182 129.068 68.1789C129.068 67.4148 128.45 66.8081 127.697 66.8081C126.944 66.8081 126.326 67.4261 126.326 68.1789C126.326 68.7182 126.641 69.1789 127.09 69.4036V75.1115C126 74.9429 125.023 74.3137 124.416 73.4036C124.641 73.1115 124.753 72.7407 124.697 72.3474C124.585 71.5946 123.877 71.0778 123.135 71.2014C122.394 71.325 121.865 72.0216 121.989 72.7632C122.09 73.4373 122.663 73.9092 123.315 73.9317C124.146 75.2463 125.54 76.1564 127.101 76.3362V82.1789C124.821 81.9542 122.865 80.471 122 78.3811C122.292 78.1002 122.472 77.6845 122.427 77.2463C122.349 76.4935 121.674 75.9429 120.922 76.0216C120.169 76.1002 119.618 76.7744 119.697 77.5272C119.764 78.1564 120.236 78.6396 120.832 78.7407C121.854 81.3362 124.292 83.1677 127.113 83.4036V89.3362H128.337V83.4036C131.158 83.1677 133.585 81.3362 134.607 78.7407H134.562Z" fill="#AECC53"/>
<path d="M144.945 76.7291C144.945 67.201 137.214 59.4707 127.686 59.4707C118.158 59.4707 110.428 67.201 110.428 76.7291C110.428 84.7404 115.888 91.4819 123.293 93.4258L127.686 99.246L132.079 93.4258C139.484 91.4819 144.945 84.7404 144.945 76.7291Z" stroke="#AECC53" stroke-width="1.11236" stroke-linecap="round" stroke-linejoin="round"/>
<path d="M214.337 159.819H183.472V216.291H97.1575V272.538H11.5059" stroke="#AECC53" stroke-width="1.68539" stroke-linecap="round" stroke-linejoin="round"/>
</g>
<defs>
<clipPath id="clip0_8046_7010">
<rect y="0.62793" width="400" height="276.404" rx="6" fill="white"/>
</clipPath>
</defs>
</svg>

<svg xmlns="http://www.w3.org/2000/svg" width="400" height="278" fill="none" viewBox="0 0 400 278"><g clip-path="url(#a)"><path fill="#003834" d="M400 .628H0v276.404h400z"/><path fill="#aecc53" d="m232.326 65.515 18.989 24.967a42.8 42.8 0 0 0-11.978 15.91c-2.326 5.348-3.494 11.045-3.494 16.932a42.56 42.56 0 0 0 4.798 19.652l-4.686 2.685-.135.068-6.932 3.977s-.09.045-.146.068l-7.158 4.101s-.101.045-.157.079l-8.034 4.595c-5.842-10.764-8.921-22.91-8.921-35.236 0-10.213 2.045-20.101 6.079-29.404 4.797-11.068 12.303-20.854 21.752-28.394m.338-2.382c-10.304 7.854-18.472 18.259-23.607 30.101-4.124 9.506-6.214 19.63-6.214 30.068 0 13.18 3.45 26.168 9.967 37.539l9.505-5.449 7.304-4.191 7.067-4.056 6.247-3.573c-3.528-6.147-5.382-13.169-5.382-20.293a40.7 40.7 0 0 1 3.36-16.258 40.97 40.97 0 0 1 12.775-16.281l-21.022-27.63zm101.325 111.45-8.315-7.674-6.842-6.326-5.259-4.854-5.09-4.697c-7.719 8.36-18.674 13.158-30.045 13.158-14.618 0-28.224-7.888-35.494-20.585l-6.011 3.45-6.214 3.562-8.09 4.629-9.82 5.629c13.45 23.483 38.607 38.068 65.641 38.068 21.033 0 41.28-8.866 55.55-24.326z"/><path fill="#fff" d="m325.921 167.156 8.045 7.438c12.933-14 20.045-32.213 20.045-51.281h-34.719a40.77 40.77 0 0 1-10.843 27.731l5.292 4.887 5.989 5.529 6.18 5.707zM278.416 49.392c40.191 0 73 32.247 73.898 72.236h-31.359c-.888-22.697-19.629-40.877-42.528-40.877-8.922 0-17.461 2.73-24.686 7.877-.179.123-.55.416-1.067.82l-18.978-24.977c.405-.315.787-.596.911-.697 12.752-9.404 27.91-14.382 43.82-14.382m-.011-1.685c-16.293 0-31.764 5.078-44.821 14.707-.314.236-2.258 1.73-2.258 1.73l21.034 27.675c.348-.258 2-1.573 2.348-1.832 6.944-4.955 15.112-7.561 23.697-7.561 22.539 0 40.876 18.337 40.876 40.876h34.719c0-41.685-33.91-75.607-75.607-75.607z"/><path stroke="#fff" stroke-miterlimit="10" stroke-width=".416" d="m282.191 57.583-.045-23.483h35.877"/><path fill="#fff" d="M317.944 35.684c.865 0 1.573-.708 1.573-1.573s-.708-1.573-1.573-1.573-1.573.708-1.573 1.573.708 1.573 1.573 1.573"/><path stroke="#fff" stroke-miterlimit="10" stroke-width=".416" d="M224.45 89.605h-50.82"/><path fill="#fff" d="M173.708 88.032c-.865 0-1.573.708-1.573 1.573s.708 1.573 1.573 1.573 1.573-.708 1.573-1.573-.708-1.573-1.573-1.573"/><path stroke="#fff" stroke-miterlimit="10" stroke-width="2.247" d="M175.011 83.066h30.337"/><path stroke="#fff" stroke-miterlimit="10" stroke-width=".416" d="M336.169 160.392H387"/><path fill="#fff" d="M386.922 161.965c.865 0 1.573-.708 1.573-1.573s-.708-1.573-1.573-1.573c-.866 0-1.573.708-1.573 1.573s.707 1.573 1.573 1.573"/><path stroke="#fff" stroke-miterlimit="10" stroke-width="2.247" d="M385.608 153.853h-30.337M281.753 28.01h35.955m-35.955-6.741h35.955"/><path stroke="#fff" stroke-miterlimit="10" stroke-width=".416" d="m289.899 195.167.427 25.731"/><path fill="#fff" d="M288.753 220.842a1.58 1.58 0 1 0 3.158-.058 1.58 1.58 0 0 0-3.158.058"/><path stroke="#fff" stroke-miterlimit="10" stroke-width="2.247" d="M295.235 215.65h38.203m-38.203-5.617h38.203"/><path stroke="#fff" stroke-miterlimit="10" stroke-width="1.124" d="m286.967 141.493-16.045-9.269v-18.54l16.045-9.269h.045l16.056 9.269v18.54l-16.056 9.269z"/><path fill="#a7c553" d="M286.933 132.224v-18.54l-16.056-9.269-16.057 9.269v18.54l16.057 9.269z"/><path fill="#fff" d="M278.248 123.179a7.366 7.366 0 0 1-14.73.123c-.034-4.067 7.281-10.989 7.281-10.989s7.415 6.798 7.449 10.866"/><path stroke="#000" stroke-linecap="round" stroke-linejoin="round" stroke-width="1.022" d="m270.865 121.336.101 12.258"/><path fill="#000" d="m78.067 168.707 43.787-3.416c2.472-.18 6.595 3.09 6.618 5.573l.472 36.517 12.472 8.314-24.371-.168-5.157-27.989-42.596 6.899z"/><path fill="#000" d="m92.146 169.65-14.393 30.405-21.854 51.404 13.18 17.045L44 259.605l3.663-74.73z"/><path stroke="#757575" stroke-miterlimit="10" stroke-width=".865" d="m92.146 169.65-14.393 30.405-21.854 51.404 13.18 17.045L44 259.605l3.663-74.73z"/><path fill="#003834" stroke="#adcb53" stroke-linecap="round" stroke-linejoin="round" stroke-width="1.124" d="M101.226 171.887c-2.338-12.888-7.675-41.079-9.9-48.989-2.246-7.978-4.078-16.135-11.168-21.304-8.427-6.134-19.135-5.618-25.82 2.809-3.966 5-5.798 11.394-6.685 17.72-1.304 9.359-2.36 62.764-2.36 62.764.685 1.022 1.247 2.191 2.225 2.752 31.989 18.405 54.966-8.73 53.696-15.752z"/><path fill="#fff" d="M77.18 99.168c9.228 0 16.708-7.48 16.708-16.708s-7.48-16.708-16.708-16.708-16.707 7.48-16.707 16.708 7.48 16.708 16.707 16.708"/><path fill="#000" d="M68.034 91.257c-1.46-5.955.55-12.382 5.303-16.27 5.506-4.494 12.877-4.674 18.45-1.292-1.158-3.056-3.068-5.932-6.236-8.213-6.573-4.73-15.326-5.124-21.955-.472-8.348 5.843-10.483 17.326-4.753 25.786a18.8 18.8 0 0 0 3.775 4.102c2.528 2.022 6.281-.337 5.472-3.472-.011-.056-.034-.113-.045-.169z"/><path fill="#000" d="M59.843 76.325a9.55 9.55 0 0 0 9.55-9.55 9.55 9.55 0 1 0-9.55 9.55"/><path stroke="#757575" stroke-linecap="round" stroke-linejoin="round" stroke-width=".562" d="M91.775 73.696c-1.157-3.057-3.067-5.933-6.236-8.214-5.067-3.652-11.427-4.697-17.112-2.876-1.55-3.18-4.81-5.382-8.584-5.382-5.27 0-9.551 4.28-9.551 9.55 0 4 2.46 7.416 5.944 8.843-1.304 5.022-.54 10.55 2.595 15.18a18.8 18.8 0 0 0 3.776 4.1"/><path fill="#fff" d="M69.7 89.528c2.008-.689 2.891-3.417 1.973-6.093s-3.29-4.289-5.297-3.6-2.89 3.416-1.973 6.093c.918 2.677 3.29 4.288 5.297 3.6"/><path fill="#3c3c3c" d="M87.36 81.886a1.57 1.57 0 0 0 .775 2.079 1.57 1.57 0 0 0 2.078-.776c.36-.786-2.494-2.09-2.853-1.303"/><path stroke="#3c3c3c" stroke-linecap="round" stroke-linejoin="round" stroke-width="1.124" d="M92.483 80.594c-2.011-2.348-5.337-3.28-8.169-2.045"/><path stroke="#606060" stroke-linecap="round" stroke-linejoin="round" stroke-width=".438" d="M88.618 94.459c-1.607-.663-2.315-1.258-2.99-2.899"/><path stroke="#adcb53" stroke-linecap="round" stroke-linejoin="round" stroke-width="2.831" d="m122.393 120.437 22.236-11.427"/><path fill="#fff" d="M119.001 124.493c1.427-1.236 3.382-1.741 4.247-3.46.764-1.506.753-4.225 1.101-5.91.18-.866.517-1.888 1.371-2.101.809-.191 1.584.516 1.865 1.303.809 2.303 1.079 7.629 5.281 5.921 2.371-.966 2.067-4.91 4.303-6.281 1.068-.651 4.573-2.393 5.877-1.078.775.775-2.832 5.292-3.281 6.55a445 445 0 0 0-2.27 6.427c-.371 1.09-.764 2.214-1.584 3.034-.742.753-1.764 1.157-2.753 1.539-4.697 1.843-11.011 2.472-14.775 6.034"/><path fill="#aecc53" d="M120.449 138.617s-.057.056-.09.078l-11.618 9.989c-6.573 5.663-15.214 7.843-23.686 6-8.483-1.842-15.415-7.427-19.045-15.314l-6.505-14.135c-2.259-4.91-.113-10.719 4.798-12.978 4.91-2.258 10.719-.112 12.977 4.798l6.506 14.135a7.75 7.75 0 0 0 5.427 4.371 7.78 7.78 0 0 0 6.764-1.708l11.618-9.989c4.09-3.528 10.269-3.056 13.797 1.034 3.495 4.067 3.068 10.179-.943 13.719"/><path stroke="#606060" stroke-linecap="round" stroke-linejoin="round" stroke-width=".438" d="M65.799 83.426c.011-.708.123-1.528.73-1.888.584-.36 1.382-.078 1.843.439.45.516.64 1.202.809 1.865.09.348-1.63.674-.764 1.91.224.326.55.562.865.786-.09.416-.191.854-.46 1.191-.26.337-.72.562-1.124.416"/><path fill="#aecc53" d="M134.562 78.74a1.36 1.36 0 0 0 1.135-1.213 1.373 1.373 0 0 0-2.73-.28c-.045.438.123.842.427 1.134a6.2 6.2 0 0 1-5.102 3.798v-5.843a5.26 5.26 0 0 0 3.787-2.404 1.37 1.37 0 0 0 1.326-1.169 1.373 1.373 0 0 0-1.146-1.562 1.38 1.38 0 0 0-1.562 1.146c-.056.394.056.765.281 1.057a3.98 3.98 0 0 1-2.674 1.708v-5.708a1.37 1.37 0 0 0-.607-2.596c-.753 0-1.371.618-1.371 1.37 0 .54.315 1 .764 1.226v5.708a3.96 3.96 0 0 1-2.674-1.708c.225-.292.337-.663.281-1.057a1.36 1.36 0 0 0-1.562-1.146c-.741.124-1.27.82-1.146 1.562a1.38 1.38 0 0 0 1.326 1.169c.831 1.314 2.225 2.224 3.786 2.404v5.843A6.2 6.2 0 0 1 122 78.38a1.39 1.39 0 0 0 .427-1.135 1.373 1.373 0 1 0-1.595 1.495 7.43 7.43 0 0 0 6.281 4.663v5.932h1.224v-5.932a7.42 7.42 0 0 0 6.27-4.663z"/><path stroke="#aecc53" stroke-linecap="round" stroke-linejoin="round" stroke-width="1.112" d="M144.945 76.73c0-9.529-7.731-17.26-17.259-17.26s-17.258 7.731-17.258 17.26c0 8.01 5.46 14.752 12.865 16.696l4.393 5.82 4.393-5.82c7.405-1.944 12.866-8.686 12.866-16.697"/><path stroke="#aecc53" stroke-linecap="round" stroke-linejoin="round" stroke-width="1.685" d="M214.337 159.819h-30.865v56.472H97.157v56.247h-85.65"/></g><defs><clipPath id="a"><rect width="400" height="276.404" y=".628" fill="#fff" rx="6"/></clipPath></defs></svg>
